!!!OTL: SO ZIEHEN WIR SCHEIDEND ZUM THORE HINAUS
!!!ARE: Europa, Mitteleuropa, Deutschland
!!!SCT: F1100
!!!YEM: Copyright 1995, estate of Helmut Schaffrath.
**kern
*ICvox
*Ivox
*M3/4
*k[f#c#g#]
*A:
{4e
=1
4.cc#
8b
4a
=2
4.e
8f#
4e
=3
4.e
8f#
8g#
8a
=4
2b}
{4e
=5
4dd
4cc#
4b
=6
4a
4g#
4f#
=7
4e
4cc#
4b
=8
2a}
{8e
8g#
=9
4.b
8cc#
4b
=10
4.b
8cc#
4b
=11
4b
4ee
4dd
=12
2cc#}
{8a
8b
=13
4cc#
4b
4cc#
=14
4dd
4f#
4b
=15
4a
4cc#
4b
=16
2a}
{8e
8g#
=17
4.b
8cc#
4b
=18
4.b
8cc#
4b
=19
4b
4ee
4dd
=20
2cc#}
{8a
8b
=21
4cc#
4b
4cc#
=22
4dd
4f#
4b
=23
4a
4cc#
4b
=24
2a}
==
!!!AGN: Kriegs - Lied, national, Abschied
!!!ONB: ESAC (Essen Associative Code) Database: FINK
!!!AMT: simple triple
!!!AIN: vox
!!!EED: Helmut Schaffrath
!!!EEV: 1.0
*-
